X: 38604
T: Stonemason's, The
R: jig
M: 6/8
K: Dmajor
DFA d2 A|BdB AFD|GAB ABd|cde gfe|
DFA d2 A|(3Bcd B AFD|GFE FED|EDC D3:|
Add f3|dfa afd|gag fed|cde gfe|
Add f3|dfa afd|bag agf|gfe d3:|

